icons/op-image1-24.svg

<svg width="24" height="24" viewBox="0 0 24 24" fill="none" xmlns="http://www.w3.org/2000/svg">
<path d="M18 7.84615V16.1538H6V7.84615H18ZM20 6H4V18H20V6ZM11.25 9.92308C11.25 10.6731 10.5625 11.3077 9.75 11.3077C8.90625 11.3077 8.25 10.6731 8.25 9.92308C8.25 9.14423 8.90625 8.53846 9.75 8.53846C10.5625 8.53846 11.25 9.14423 11.25 9.92308ZM7 15.2308H17V11.8846L15.4062 9.23077L13.2812 13.5288L12 12.3173C12 12.3173 10.25 12.9231 9.65625 13.8462C8.75 13.3846 8.25 13.8462 8.25 13.8462L7 15.2308Z" fill="black"/>
</svg>

<svg xmlns="http://www.w3.org/2000/svg" width="24" height="24" viewBox="0 0 24 24"><path d="M18 7.846v8.308H6V7.846h12ZM20 6H4v12h16V6Zm-8.75 3.923c0 .75-.688 1.385-1.5 1.385-.844 0-1.5-.635-1.5-1.385 0-.779.656-1.385 1.5-1.385.812 0 1.5.606 1.5 1.385ZM7 15.231h10v-3.346l-1.594-2.654-2.125 4.298L12 12.317s-1.75.606-2.344 1.529c-.906-.461-1.406 0-1.406 0L7 15.231Z"/></svg>
